X:1
T:[ID 2-4]
T:[ID 2-4]
T:Bezeichnung standardisiert: Menuet [mit Trio] Menuet [mit Trio] Secondo
T:Urheber unbekannt Datum in der hier transkribierten schriftlichen Quelle: 1767
C:Urheber unbekannt
C:Datum in der hier transkribierten schriftlichen Quelle: 1767
L:1/8
M:3/4
K:D
V:1 treble 
V:1
 f4 f2 | (3edc c4 | dFGE F2 | f4 f2 | (3a^gf g4 | ad c2 B2 |{B} c6 :: f2 Dfed | e2 cedc | dfedcB | %10
"^[sic]" A2 E2 A2 | a2 F2 a2 | g2 E2 g2 | d2 GFGE |{E} F4 :|[M:3/4]"^Trio" !fermata!d4 (3AGF | %16
 f2 f2 f2 | d4 (3AGF | f2 f2 f2 | d4 (3AGF | g2 g2 f2 | e2 gfed |{d} c6 :: e2 e2 d2 | c2 c2 d2 | %25
{d} c6 | f4 g2 | fbagfe | d2 GFGE | F6 :| %30

